/* XPM */
static char *_c51cf85f78e4dc09fa37c413c6be05eIA5I0fnw2moQT5Yl[] = {
/* columns rows colors chars-per-pixel */
"48 48 105 2 ",
"   c #72751B",
".  c #74771E",
"X  c #70701C",
"o  c #6F6828",
"O  c #6E6A1E",
"+  c #7A7A25",
"@  c #6E632E",
"#  c #7C7264",
"$  c #7D7467",
"%  c #80786B",
"&  c #7F7669",
"*  c #756953",
"=  c #6F6A25",
"-  c #848441",
";  c #70721A",
":  c #72741B",
">  c #6E6234",
",  c #858276",
"<  c #89867A",
"1  c #888579",
"2  c #8A877B",
"3  c #827E73",
"4  c #8B894F",
"5  c #7E7F34",
"6  c #6E662A",
"7  c #6E603C",
"8  c #705D45",
"9  c #878478",
"0  c #868377",
"q  c #827B6E",
"w  c #6B563E",
"e  c #645432",
"r  c #6D6722",
"t  c #7B705D",
"y  c #786D5F",
"u  c #766A5B",
"i  c #706151",
"p  c #6E5D4D",
"a  c #777425",
"s  c #6F672C",
"d  c #71663F",
"f  c #736454",
"g  c #848074",
"h  c #8C897C",
"j  c #736758",
"k  c #756849",
"l  c #817D70",
"z  c #7D6F60",
"x  c #908E82",
"c  c #7E7A6E",
"v  c #796C5A",
"b  c #614B3A",
"n  c #6B5949",
"m  c #6B6357",
"M  c #6E6457",
"N  c #6E665B",
"B  c #787063",
"V  c #635521",
"C  c #787366",
"Z  c #604E3F",
"A  c #5A4230",
"S  c #615243",
"D  c #5C4635",
"F  c #685C4F",
"G  c #675545",
"H  c #736C5E",
"J  c #7D796C",
"K  c #746742",
"L  c #72721E",
"P  c #756E61",
"I  c #756946",
"U  c #787724",
"Y  c #726A5C",
"T  c #767164",
"R  c #6B6052",
"E  c #7A7569",
"W  c #7A6D5C",
"Q  c #7A713C",
"!  c #6E6B1B",
"~  c #68562F",
"^  c #8E8B7E",
"/  c #65584A",
"(  c #6F5B3E",
")  c #777232",
"_  c #706D1E",
"`  c #796D5B",
"'  c #796D5A",
"]  c #675F54",
"[  c #7B776A",
"{  c #675C1F",
"}  c #5E4B22",
"|  c #5C4531",
" . c #655A1D",
".. c #5B462C",
"X. c #64581B",
"o. c #5D4A25",
"O. c #6E6C1A",
"+. c #73761E",
"@. c #5E4A2C",
"#. c #6F6E1D",
"$. c #64581E",
"%. c #5D4A2C",
"&. c #63561D",
"*. c #655A19",
"=. c white",
/* pixels */
"                                                                                                ",
"                                                                                                ",
"                                      . .                                                       ",
"                                      . . .                                                     ",
"                                      . . .                                                     ",
"                                                                                                ",
"          .                         X o o o o o o o o o O                                       ",
"          . . + + + .               @ # $ $ % % & % % & * =                                     ",
"          . + - - - +           ; : > , < < 1 % $ & 2 < 3 > : ;                                 ",
"          . + 4 4 4 5     : O 6 7 7 8 9 1 < 0 $ & q 2 < < w e 7 6 O :                           ",
"            . - 4 - + : r 7 t y u u i 0 < 2 0 q % 3 2 2 2 p p u y * 7 r                         ",
"                + a s d t q y f # # f g 2 2 2 h h h 2 2 2 f # # j y q 7 r O :                   ",
"                o k % l u i u g 0 9 z g 2 2 h h h h h 2 , y 1 < 9 & y f f * 7 o                 ",
"            X > t 9 & u # l l 0 0 0 $ # x < 0 1 1 < h x $ $ g , 1 < 1 & f u c v > X             ",
"          X @ z 1 $ u q , , 0 1 2 q b n # j m M M N B 3 j % < 0 0 , 3 0 l f u g u V X           ",
"        X d % % f y , , , 0 < g C m Z A S b A D b b S F G H J g 9 , l 3 , , u p % $ K L .       ",
"      ; d 3 g B z g 9 9 1 9 P F S D D b b n i i f j M G b G M H C l , 3 3 3 3 j y 9 l I U .     ",
"      r v 3 y z < 1 2 < < Y Z A D G i Y Y Y H P T C C P F R H i p N E 9 g l l 3 j y , W Q +     ",
": ! O ~ y y p $ g h x ^ Y D A / M Y H H H H P T T C T H C C T T H n F E 2 0 3 q # p # z ( ) _ X ",
"6 t v j u j f j H # B B D D F Y j Y H H P P T T C T R P C T C T T C i / & B y P B y u y u ` ' k ",
"y < 0 g g 3 l l l c & G A R H H Y m / / / F F R R R F R R R m T T C E n i < g g , , , 0 0 0 < z ",
"y 0 g 3 q 3 3 3 3 3 g b S H Y Y P F R H P P P T B T T T C B R Y T C E H G , g g g , g l g , 1 z ",
"z 1 g $ & & g g g , $ D R H P Y Y ] N T T T T C C C C C C T m M T T C C G $ g g 0 9 q # % q 2 z ",
"z < g y $ B 0 , , h z D Y T P C M / Y C C C C C C E E C C C M j T T T C R z , , 9 1 q y # & ^ z ",
"z 2 1 q # , < 1 9 2 # D Y T T C C R H E [ J [ E E E [ E C C N P C T T C R z 1 9 9 1 , z 3 2 ^ z ",
"z ^ 2 2 h 2 < < 1 2 # b Y C C C E Y H E [ J [ E [ [ [ [ E E Y T C T T T p z < 9 1 2 h ^ ^ h ^ z ",
"z x ^ h h h < g g # p A H E J J E Y P [ [ [ [ [ J J J J J [ Y C C T P H S f $ g 0 1 h ^ 0 g x z ",
"i 1 , l l l $ B $ % % n Y c c c [ H B [ [ [ [ J J J c c c J H C E C T M p % $ y f p C q c c 3 i ",
"Z N ] R R n S 3 1 , g l y C l c E H P J J J c c c c c c c [ Y C E [ H i [ q q 3 $ n F F F ] m Z ",
"b / n c $ y G j < , , 0 , B # c J C Y Y Y Y Y H H Y j N j j H E E P p # 3 3 l g j n [ l g p / b ",
"{ } | g 3 c B S & 1 0 0 9 2 z y J c J J J J J J J J C H [ J J E j f # 0 0 , , T b B g 9 9 | }  .",
"    V M g l c M / 3 2 < 1 < 1 & j j B [ J c c c c c c J [ B j f & 0 0 1 9 9 C b n J , 9 R V     ",
"    ! ..c g % j b M H c 2 < < 9 3 # f f u u y y u u u B P f $ 0 < < 1 < h E S D p E 1 [ ..!     ",
"       .F # & q i n m B h 2 < 9 0 , l u & q q % & $ $ y f q 9 < < < h 1 Y S Z j P Y y S X.      ",
"      ; o.F , 9 9 % p i B 3 2 2 1 9 & q < h < 9 9 0 0 0 % $ 0 2 h 2 % R Z / # c c B b o.;       ",
"        O.e Y 3 9 g 0 z n F H E g 1 # 9 1 1 9 , , g , , , z 9 g P R S Z M J l l C S o.O.        ",
"          O.e N [ 1 2 ^ % f G S n f f < 2 h 2 q q g 1 0 1 i i G b G i y % q c M S o.O.          ",
"            O.} F P g l q , J f G b n h ^ ^ < & $ l h 2 2 G D G f q 2 3 q C ] | } O.            ",
"              +.{ @.F R g , 9 0 J E j ^ ^ ^ h 1 h 1 h 2 h i Y g 9 2 g E F Z .. .:     .         ",
"          . . . . #.$.%.F N T C l c f 2 ^ 2 < 1 9 9 1 2 < n u l y j / D ..&.O.        . .       ",
"          . . . . . . O.&.%.S S F / D Y Y N N N N m m N N A Z / Z D ..&.O.            . . .     ",
"          . .             O.*.&.%.%.| M m ] ] ] ] ] ] ] ] | %.%.&.*.O.                          ",
"            .                   ; ; V G Z Z S S S S S S S V ; ;                                 ",
"                                    X  .X.X.X.X.X.X.X.X. .X                                     ",
"                                                                                                ",
"                                                                                                ",
"                                                                                                ",
"                                                                                          :     "
};
