/* XPM */
static char *_cc0fb94588e41eea27c503702d4ab33aGGQUQoDRx35CpPJ[] = {
/* columns rows colors chars-per-pixel */
"48 48 149 2 ",
"   c #72751B",
".  c #74771E",
"X  c #5F621F",
"o  c #313628",
"O  c #333828",
"+  c #6C6F1C",
"@  c #71741B",
"#  c #575A21",
"$  c #161C2E",
"%  c #242631",
"&  c #1A1F2F",
"*  c #13192D",
"=  c #22282B",
"-  c #393E27",
";  c #6F721C",
":  c #10162D",
">  c #898D39",
",  c #6B723B",
"<  c #363C31",
"1  c #7A7A25",
"2  c #5B5F20",
"3  c #90973B",
"4  c #EEF544",
"5  c #E9EE44",
"6  c #D0D741",
"7  c #585E34",
"8  c #3A3F26",
"9  c #848441",
"0  c #505422",
"q  c #E3E048",
"w  c #E0D44A",
"e  c #EAF143",
"r  c #F1F947",
"t  c #BAC040",
"y  c #8B894F",
"u  c #7E7F34",
"i  c #434725",
"p  c #D8C24E",
"a  c #CDA454",
"s  c #DCCA4C",
"d  c #E4E346",
"f  c #AE904C",
"g  c #363235",
"h  c #3F4035",
"j  c #D0A953",
"k  c #E1DB47",
"l  c #D4B152",
"z  c #D3A855",
"x  c #4C4439",
"c  c #6D701C",
"v  c #141A2D",
"b  c #3F373C",
"n  c #E0DAD5",
"m  c #DEDFE1",
"M  c #707481",
"N  c #D6CE47",
"B  c #CBA253",
"V  c #BD9C51",
"C  c #AC894E",
"Z  c #2E2D34",
"A  c #63661E",
"S  c #1B212D",
"D  c #191F2C",
"F  c #EBE5E5",
"G  c white",
"H  c #F8F7F6",
"J  c #6D717D",
"K  c #786442",
"L  c #71741F",
"P  c #525832",
"I  c #0C122B",
"U  c #484D5C",
"Y  c #242B2A",
"T  c #65681E",
"R  c #818140",
"E  c #4E5137",
"W  c #7B8138",
"Q  c #E6EA46",
"!  c #F6FA94",
"~  c #ECF254",
"^  c #606436",
"/  c #9EA1A9",
"(  c #E0E3AB",
")  c #4C5023",
"_  c #84824D",
"`  c #1C2230",
"'  c #D8DE42",
"]  c #F7FBAF",
"[  c #F9FCC9",
"{  c #8A884F",
"}  c #42453B",
"|  c #141B2E",
" . c #FFFFF5",
".. c #EBF343",
"X. c #CAB64D",
"o. c #494D34",
"O. c #4D5125",
"+. c #7D7D40",
"@. c #24292F",
"#. c #725D42",
"$. c #6F721F",
"%. c #6A6B26",
"&. c #33372B",
"*. c #D8BEAE",
"=. c #B17F58",
"-. c #60523E",
";. c #2D3229",
":. c #AAB13D",
">. c #ADB341",
",. c #C4C4BD",
"<. c #AC7A58",
"1. c #BA9174",
"2. c #DAC54D",
"3. c #BD9652",
"4. c #1C222D",
"5. c #C6C744",
"6. c #A97856",
"7. c #C8A690",
"8. c #F0EDB5",
"9. c #EAF14C",
"0. c #3D4226",
"q. c #8C7745",
"w. c #B48457",
"e. c #AE7B58",
"r. c #A77556",
"t. c #959B3C",
"y. c #CFA654",
"u. c #C89D55",
"i. c #D2AB54",
"p. c #C6AB4E",
"a. c #99A03D",
"s. c #FFFFE5",
"d. c #F4F79A",
"f. c #997E49",
"g. c #CFA554",
"h. c #D7BD4F",
"j. c #976D52",
"k. c #F1F681",
"l. c #695641",
"z. c #8F6750",
"x. c #B3A348",
"c. c #BC8F56",
"v. c #B88A56",
"b. c #604A42",
"n. c #9E7054",
"m. c #171E2C",
"M. c #454924",
"N. c #606421",
"B. c #22282C",
/* pixels */
"                                                                                                ",
"                                                                                                ",
"                                      . .                                                       ",
"                                      . . .                                                     ",
"                                      . . .                   X o o o O + @                     ",
"                                                              # $ % & * = - ;                   ",
"          .                                                   # : > , < < * - ;                 ",
"          . . 1 1 1 .                                         2 : 3 4 5 6 7 < 8 ;               ",
"          . 1 9 9 9 1                                     @ 0 8 : 3 q w e r t < 8 ;             ",
"          . 1 y y y u                                   @ i $ $ : 3 p a s e d f g - ;           ",
"            . 9 y 9 1                                   ; = $ & & h f j k q l z x * - @         ",
"                1 1 .                       c + + + + + - v b n m M % h N l B V C Z = @         ",
"                                        c A o S D D D D v * b F G H J * < f K % % = O @         ",
"                                . 1 L 2 8 $ : $ P P P P P & I U m G G , * & $ Y O T @           ",
"                              1 u R E $ $ : P W Q ! ! ! ~ > ^ I U / ( ~ , & $ )                 ",
"                            . u y _ ` $ : 7 ' r ] G G G [ ] Q > x I 7 d 6 & $ ) . 1 1 . .       ",
"                            1 9 { } | : P ' 4 ~  .G G G G  .~ ..X.x : o.o.$ $ O.1 u 9 u 1 .     ",
"                            1 9 +.@.& % W r e ~  .G G H G  .~ ..w #.* : * $ - $.u y y y 9 1     ",
"                            $.%.&.* < ' Q 4 4 ~  .G *.=.n  .~ e w a -.Z & ;.@   1 9 y y y u .   ",
"                      2 # 2 8 $ * $ , ..6 :.>.>.,.*.<.1.F  .~ e e 2.B 3.% Y T   . 1 1 u u u .   ",
"                    # 4.$ * : : b -.s 5.7 : : : & #.6.7.8.] 9.e e 2.a V % $ 0.        . . .     ",
"                  # 4.* : < 3 q.C w.3.x * * -.K $ g e.r.N ..e e e 2.a V % $ 0.                  ",
"                # 4.& t.>.5.r s y.u.C $ * -.u.i.>.t p.<.3.d e e e 2.a B q.& 0.                  ",
"              # D & a.[ s.s.d.Q d l f & $ % f.i.5 4 Q k k Q e e w j g.y.f & 0.                  ",
"            T S % t.~ s.G G ] e e h.3.* * $ % f.V 6 4 ..e e e 5 s a y.y.C & 0.                  ",
"          @ 0 v , 4 [ G G G ] k N 5 6 7 h * : * $ o.5.k Q ....k g.y.u.3.j.& 0.                  ",
"          + S : , 4 [ G  .] k.p.r.X...' ^ I P l.$ : -.z 2.w w 2.y.u.=.<.z.& 0.                  ",
"          + D Z x...k.d.k.e ..p.r.e.x.7 I 7 ' l K * l.z c.v.v.v.c.=.<.e.j.& 0.                  ",
"          + D x l k e e e e e q 3.<.z.$ : 3 4 N o.* l.i.u.=.6.<.<.<.<.r.b $ 0.                  ",
"          + D x g.N e e e e e e d v.r.j.b.g x < $ $ W Q h.u.=.<.<.e.r.b $ ;.+                   ",
".         + D x g.w ..e e e e e q v.<.<.r.n.j.% I o.Q e Q l u.e.e.n.b $ $ o                     ",
"          + D x g.p 5 e e e e e V 6.e.V V V V ^ P W ..e 5 l u.e.e.l.b & $ o                     ",
"          + m.x z a 2.5 e e e e V 6.X.e e e e ......e e 5 l u.e.<.e.<.b.& = 2                   ",
"          ; M.Z q.z a p 5 e e e N p 5 e e e e e e e e e 5 l u.e.<.<.<.r.% $ 8                   ",
"            T v -.z g.a p 5 5 5 ....e e e e e e e e e e s j u.e.<.<.<.n.% $ 0.                  ",
"            T S & q.z g.y.l l w 5 Q e e e e e e e 5 5 s y.B w.<.<.<.<.b $ $ i                   ",
"              0 * #.a y.g.a a j i.l q d d d d d d w j y.g.u.e.<.<.e.j.% $ ;.;                   ",
"              X = $ K a y.g.g.g.g.g.y.y.y.y.y.y.y.y.g.y.u.=.<.e.=.j.g $ m.i                     ",
"              . N.B.$ #.3.z y.y.g.g.g.g.g.g.g.g.g.y.u.c.=.<.=.n.l.g * $ = @           .         ",
"          . . . . N.B.$ x K c.u.z y.y.g.g.g.g.y.B c.w.<.e.6.b.b * $ $ m.) @           . .       ",
"          . . . . . N.= * & b h x 6.w.c.B B c.w.w.z.b b b b $ v m.$ M.2               . . .     ",
"          . .         T # 4.D D v % Z Z g g Z Z Z % m.4.D S Y A A A ;                           ",
"            .             + + + - = Y Y Y Y Y Y Y = i c + + c                                   ",
"                                @ @ @ @ @ @ @ @ @ @ @                                           ",
"                                                                                                ",
"                                                                                                ",
"                                                                                                ",
"                                                                                                "
};
