/* XPM */
static char *_11fde5ccc854d9990af263619cfe381BmtUBV7aETVVELx7[] = {
/* columns rows colors chars-per-pixel */
"48 48 7 1 ",
"  c #72751B",
". c #74771E",
"X c #7A7A25",
"o c #8A8028",
"O c #8B894F",
"+ c #848441",
"@ c #7E7F34",
/* pixels */
"                                                ",
"                                                ",
"                   ..                           ",
"                   ...                          ",
"                   ...                          ",
"                                                ",
"     .                                          ",
"     ..XXX.                                     ",
"     .X+++X                                     ",
"     .XOOO@                                     ",
"      .+O+X                                     ",
"        XX.                      ..             ",
"                              ....              ",
"                .X.           ...               ",
"               X@++@XX        ..                ",
"              .@OOOO+@.       .         .XX..   ",
"              X+OOOO+@.                .X@+@X.  ",
"              X++@@++X                 .@OOO+X  ",
"              .XX.....                  X+OOO@. ",
"                                        .XX@@@. ",
"                                           ...  ",
"                                                ",
"                                                ",
"                                                ",
"                                                ",
"                                                ",
"                  .                             ",
"                  ...                           ",
"                  .XX.                          ",
"                  XXX...                        ",
".                .XooX.                         ",
"                .XooooXX                        ",
"               .Xooooooo.     ..                ",
"               XooooXXXX     ....               ",
"              .XooX.  ..     ...                ",
"               ....          ..                 ",
"                                                ",
"                                                ",
"       ....                                .    ",
"     ......                                ..   ",
"     ......                                ...  ",
"     ..                                         ",
"      .                                         ",
"                                                ",
"                                                ",
"                                                ",
"                                                ",
"                                                "
};
