/* XPM */
static char *_1667d69779c4510a0988760a0c79048hRyuiJ4TrBjUhRWZ[] = {
/* columns rows colors chars-per-pixel */
"48 48 173 2 ",
"   c #72751B",
".  c #74771E",
"X  c #707022",
"o  c #726730",
"O  c #746B37",
"+  c #756D39",
"@  c #6E6B23",
"#  c #7A7A25",
"$  c #8B8473",
"%  c #8D8775",
"&  c #8D877A",
"*  c #91968D",
"=  c #89A4A2",
"-  c #8D9993",
";  c #928F81",
":  c #7A6C54",
">  c #848441",
",  c #71741B",
"<  c #6D6C1D",
"1  c #6B691B",
"2  c #766A3F",
"3  c #959182",
"4  c #949386",
"5  c #93A5A2",
"6  c #8CCAD1",
"7  c #8CD0D9",
"8  c #90BBBD",
"9  c #979382",
"0  c #8D8271",
"q  c #685D27",
"w  c #6E6E1C",
"e  c #8B894F",
"r  c #7E7F34",
"t  c #706A2E",
"y  c #7C664C",
"u  c #948F7E",
"i  c #91ACAA",
"p  c #90B0B1",
"a  c #999585",
"s  c #908572",
"d  c #68503D",
"f  c #756853",
"g  c #766A4A",
"h  c #696135",
"j  c #6B6722",
"k  c #6E6E1B",
"l  c #797925",
"z  c #736E35",
"x  c #82785F",
"c  c #877F6D",
"v  c #7E7261",
"b  c #796855",
"n  c #77604C",
"m  c #979686",
"M  c #95A29C",
"N  c #999689",
"B  c #6F5948",
"V  c #756554",
"C  c #7D6B58",
"Z  c #847666",
"A  c #807563",
"S  c #77742A",
"D  c #766C3E",
"F  c #847D6D",
"G  c #897B68",
"H  c #847462",
"J  c #908B79",
"K  c #99998D",
"L  c #918978",
"P  c #8E8977",
"I  c #8A8270",
"U  c #6D5B36",
"Y  c #6B612C",
"T  c #6F701B",
"R  c #898070",
"E  c #7B6E5C",
"W  c #867968",
"Q  c #928D7D",
"!  c #8E8B7E",
"~  c #726640",
"^  c #7E7450",
"/  c #837C6D",
"(  c #857F70",
")  c #868174",
"_  c #8D897C",
"`  c #827B6D",
"'  c #6E5E50",
"]  c #766B5C",
"[  c #837E70",
"{  c #625728",
"}  c #756B3D",
"|  c #877D6C",
" . c #7F7564",
".. c #5B4130",
"X. c #654D3A",
"o. c #6E6252",
"O. c #675849",
"+. c #695341",
"@. c #705D4A",
"#. c #7C7466",
"$. c #888477",
"%. c #72685B",
"&. c #776E5F",
"*. c #7B705F",
"=. c #6B5E4E",
"-. c #827969",
";. c #706557",
":. c #5A4635",
">. c #513A29",
",. c #634936",
"<. c #7D7668",
"1. c #8A867A",
"2. c #8A8579",
"3. c #6D6339",
"4. c #71721E",
"5. c #5C4D3F",
"6. c #605041",
"7. c #787060",
"8. c #807A6D",
"9. c #797164",
"0. c #6F6732",
"q. c #6B5C4B",
"w. c #685547",
"e. c #7E786A",
"r. c #6A5D48",
"t. c #807F3F",
"y. c #6E6925",
"u. c #816E5B",
"i. c #665B4D",
"p. c #726040",
"a. c #716638",
"s. c #716C30",
"d. c #8F8776",
"f. c #807564",
"g. c #7B6F40",
"h. c #868A83",
"j. c #91C4C5",
"k. c #87826E",
"l. c #82AEB3",
"z. c #839595",
"x. c #939F97",
"c. c #88908B",
"v. c #83BEC6",
"b. c #7EC1CD",
"n. c #7A6E41",
"m. c #9C9888",
"M. c #676022",
"N. c #61502A",
"B. c #685E50",
"V. c #60564B",
"C. c #60581B",
"Z. c #5F4C2F",
"A. c #59422E",
"S. c #4C3422",
"D. c #5B4C2E",
"F. c #61591F",
"G. c #605B19",
"H. c #523F30",
"J. c #504022",
"K. c #5F5225",
"L. c #55481D",
"P. c #50401C",
"I. c #64583A",
"U. c #5F4F39",
"Y. c #6E6E20",
"T. c #63582A",
"R. c #5E551C",
"E. c #615820",
"W. c #5D462A",
"Q. c #533B1F",
"!. c #594E1C",
"~. c #5E531D",
"^. c white",
/* pixels */
"                                                                                                ",
"                                                                                                ",
"                                      . .                                                       ",
"                                      . . .                                                     ",
"                                      . . .                                                     ",
"                                                                                                ",
"          .                         X o O O O + + + + o @                                       ",
"          . . # # # .               O $ % & * = = - ; % : @                                     ",
"          . # > > > #         , < 1 2 ; 3 4 5 6 7 8 * 9 0 q 1 w                                 ",
"          . # e e e r   , < t 2 : : y u 3 4 i 7 7 p * a s d f g h j k                           ",
"            . > e > l w z x c v b b n u 9 m M p 8 5 N m % B V C Z A g <                         ",
"                # S D x F G C H s s C J 9 9 m N K N m m L H P I v v H U Y j T                   ",
"              T z x L R C E W Q Q Q G s 9 9 a m m m a 9 W R Q ; ! R v n E f ~ j ,               ",
"            k ^ & ; v v $ J P u u J b H u c / ( ( ) ; a C & _ ! ! ! & ` ' ] [ f {               ",
"          w } H 0 Z | L Q Q u 3 Q  ...X.o.O.+.B B @.] #.' I ! ! & ) [ $.( %.&.*.=.q T           ",
"        X ^ L L b | Q Q ; 3 Q -.;.O.:.>...:.,.,.X.d d d d E <.[ 1.2.) ) $.[ o.V ) <.3.4..       ",
"      , } J L H $ 3 3 3 3 & o.5.....X.@.@.b E *.v  .v o.6.B o.;.7.8.$.) [ [ / ;.7.) 9.0.# .     ",
"      @ A J Z G N a N N J q.:.:.w.V E *.v v  .-.` / ` 9.&.#.v V ' o.e._ $.[ [ [ B e./ r.t.#     ",
", y.o U C C n u.G 3 a 3 q...,.V E v -.-.-./ | c ( [ 7.` / 8.<.<.7.' i.<.2.` <.] ' ' V B p.a.s.T ",
"t d.Q _ & & 0 I I / v V ..d E v v v ] ] E E *.v v E o.E 7.&.<.<.e.e.' w.<.9.#./ [ / / / / ` f.j ",
"g.3 4 * - * 4 ; u u u B ,.E #. .Z V o.E E *.*.v v v *.*.v %.%.<.<.e.<.6.-._ ) ) $.1.h.h.h.1.F y.",
"g.9 * i j.p - 4 3 ; _ ,.@. . .v -.b  .k.k.k.I I k.k.c [ (  .o.&.e.e.e.;.' 1.) $.1.h.l.l.z.h.F y.",
"g.a x.j.6 6 M m 9 N 0 ,.E -.-.` E V -.I I I I I I I k.( [ <.V 7.<.<.#.7.w.$.) 1._ c.v.b.b.z.F y.",
"n.a x.8 7 j.x.N 9 m.0 ,.*./ / I -.V -.$ % L % $ $ I k.c [ <.] <.<.<.#.9.w.2.2.& _ c.v.v.l.c.F y.",
"2 N K M i M K N 9 a 0 ,.*.[ ( ) $ *./ P J Q P % $ % $ k.( e.&.8.e.<.#.9.w.& 1.& & ! - - c.h.F y.",
"2 m.K K K K N m 9 Q Z ,.*.( $ $ $  .c P L J P P % % $ I I / 7.` e.#.9.%.+.| $._ _ ! ! _ ) 1.F y.",
"~ a K N N N Q W W Z E X.*.$ P L $ -.R P P L P P % % % $ $ / 7.` e.#.&.' B *.&.] ] #.2.) ` ) A M.",
"N.9.9.] &.] ' R _ ! ! | E $ P P $ W I J J J J J P P P 1.$./ 7.8.8.8.] V -.[ -.v w.O.i.i.i.B.V.C.",
"N.o.O.*.E b +.C ; _ _ J % Z $ J % W Z | | | | | | W Z  .v E 7.8.8.7.'  .[ ` e.e.X.q.o.o.i.5.5.C.",
"M.Z.A.) $.[ *.+.) ! ! ! ; Q H R J P $ I I R R R c / *.E e.e.` e.%.' #.$.) [ / ' ,.7.<.8.B.S.D.1 ",
". T F.;.2.) [ ' q.1.; ; 3 a u G H 0 L J J J J P % % I / ( -.*.V  .[ $.$.) ) ;...q.9.<.&.A.G.T   ",
"    k D.8.$.[ *.,.] / L 4 m m 9 s H u.G 0 0 0 I c | / ( v V E R & 2.$.2.$.%.H...;.#.<.5.J.T     ",
"      M.=.8.v v +.+.V  .a a a a a 9 s u.G G G G Z H v b b R _ & 2.2.1.( %.:.:.O.i.;.' S.G.      ",
"      , K.O.[ $.) #.@.b I 3 m.m.a a L L m.m.m.a 4 ; ! $ E R 2.2.& 2.<.i.:.6.%.&.] w.>.L.,       ",
"        < D.%.) $.) ( C @.E R J a m.| 9 a N K - - * ! & /  .& R 7.B.5.:.' 7.9.7.i.>.P.w         ",
"          < I.%.` 1._ ! W n B V E G H a a N 5 8 v.= ! & | V V w.:.5.6.V &.9.%.O.>.P.w           ",
"            < N.i.#.1.& c % W n +.X.n m.m.K 5 6 6 = ; P | ....,.w. .<.7.9.;.5.S.L.w             ",
"              T F.U.o.o.$ ! Q Q W H C m.m.m.x.i i x.! & | 6.o.#.8.[ ` ;.w.H.J.j ,               ",
"              . . Y.T.U.;.7./ ) P % u.N m.N 4 4 ; ! _ _ W +.7.<.%.o.5.H.J.R.k         .         ",
"          . . . . . . 1 { U.O.i.;.' X.#.9.&.&.] %.;.;.%.i.>.X.6.:.H.J.C.k             . .       ",
"          . . . . . .     1 E.K.Z.W.A.;.o.B.B.B.i.i.V.V.5.S.Q.J.!.C.k                 . . .     ",
"          . .                   k w K.O.6.5.6.6.6.6.5.5.:.R.w k                                 ",
"            .                       < ~.~.~.~.~.~.~.~.~.F.k                                     ",
"                                                                                                ",
"                                                                                                ",
"                                                                                                ",
"                                                                                                ",
"                                                                                                "
};
