/* XPM */
static char *ce5bd0e990664a52952b4b7deb698c2aPAjxnOcinKaQfu7y[] = {
/* columns rows colors chars-per-pixel */
"48 48 182 2 ",
"   c #16181F",
".  c #1F201C",
"X  c #262918",
"o  c #25271E",
"O  c #333E1E",
"+  c #3D3C1E",
"@  c #2B3416",
"#  c #161A25",
"$  c #1D1C23",
"%  c #161C28",
"&  c #181A2D",
"*  c #151C33",
"=  c #211C2C",
"-  c #1D2325",
";  c #192237",
":  c #242924",
">  c #272428",
",  c #2D2B2A",
"<  c #222524",
"1  c #302D22",
"2  c #2B3422",
"3  c #2E3821",
"4  c #2B3928",
"5  c #373A28",
"6  c #3B3924",
"7  c #272530",
"8  c #342E31",
"9  c #352B3A",
"0  c #363431",
"q  c #373A37",
"w  c #3D3C3C",
"e  c #493E34",
"r  c #3C4522",
"t  c #3A4626",
"y  c #3C4C33",
"u  c #4D4E1F",
"i  c #5D5E1C",
"p  c #5F611C",
"a  c #6A6C1D",
"s  c #6D711D",
"d  c #72751B",
"f  c #75781F",
"g  c #434C22",
"h  c #4C4E25",
"j  c #4C5523",
"k  c #455129",
"l  c #535B23",
"z  c #585D20",
"x  c #47433A",
"c  c #5C6225",
"v  c #5E6628",
"b  c #636A24",
"n  c #6A6D22",
"m  c #636B2C",
"M  c #6C7222",
"N  c #707420",
"B  c #7A7A25",
"V  c #757824",
"C  c #7E7F34",
"Z  c #1F2E43",
"A  c #1F2641",
"S  c #222D49",
"D  c #252B44",
"F  c #283351",
"G  c #2A3A56",
"H  c #313F61",
"J  c #27405B",
"K  c #3B496B",
"L  c #335067",
"P  c #3D4F74",
"I  c #395273",
"U  c #395679",
"Y  c #3F5B79",
"T  c #494245",
"R  c #4E4B46",
"E  c #594B46",
"W  c #5A5444",
"Q  c #545450",
"!  c #514E54",
"~  c #635F4E",
"^  c #675B54",
"/  c #615553",
"(  c #666257",
")  c #746858",
"_  c #6B5F68",
"`  c #6A6A61",
"'  c #766863",
"]  c #7B7066",
"[  c #7F7972",
"{  c #546149",
"}  c #847968",
"|  c #997E6A",
" . c #927D66",
".. c #917E73",
"X. c #7E8036",
"o. c #7E8142",
"O. c #848441",
"+. c #8B894F",
"@. c #88874F",
"#. c #8D8164",
"$. c #8C8471",
"%. c #8B8B77",
"&. c #9D8B78",
"*. c #998764",
"=. c #A5896C",
"-. c #A69679",
";. c #AB9277",
":. c #B49472",
">. c #B79A74",
",. c #B99E7B",
"<. c #C2A279",
"1. c #CBA97E",
"2. c #C6AE7F",
"3. c #D0AD7F",
"4. c #3F6C88",
"5. c #416181",
"6. c #496689",
"7. c #43748E",
"8. c #437A8F",
"9. c #467E99",
"0. c #43859A",
"q. c #A59680",
"w. c #AC9F84",
"e. c #A6A28C",
"r. c #BEAC88",
"t. c #B6A78B",
"y. c #BDB594",
"u. c #A6A595",
"i. c #BBB6AA",
"p. c #8E8F90",
"a. c #C6A684",
"s. c #C6B48B",
"d. c #CEB78B",
"f. c #CDB286",
"g. c #D4B582",
"h. c #D6B882",
"j. c #D9BB87",
"k. c #D3B48A",
"l. c #D6BA88",
"z. c #DBBE8D",
"x. c #C4B092",
"c. c #CDBC93",
"v. c #C7BDA5",
"b. c #D5C292",
"n. c #DFC594",
"m. c #DCC891",
"M. c #D8C79C",
"N. c #E2CC9A",
"B. c #E5D49D",
"V. c #CEC7A4",
"C. c #D9CDA9",
"Z. c #DBD2AA",
"A. c #D8D0B3",
"S. c #C7C7BB",
"D. c #E6CDA0",
"F. c #EBD9A4",
"G. c #EDDDAB",
"H. c #EBD1A2",
"J. c #F3DEAD",
"K. c #F1D6A2",
"L. c #E3DAB2",
"P. c #EDDDB2",
"I. c #F1DFB4",
"U. c #EEE1A7",
"Y. c #EEE2AD",
"T. c #F0E3A6",
"R. c #F1E1AC",
"E. c #EDE3B3",
"W. c #EEE4B9",
"Q. c #F0E1B3",
"!. c #EFE8C1",
"~. c #F1E5C0",
"^. c #F5EDCB",
"/. c #F5ECC6",
"(. c #F8F3CC",
"). c #F3EDD9",
"_. c #FBF6D7",
"`. c #FBF2DC",
"'. c #E5E4D5",
"]. c #FEF9E2",
"[. c #FAFAE9",
"{. c #FDFBF5",
/* pixels */
"d d d d d d d d d d d d d d d d d d d d d d d d d d d d d d d d d d d d d d d d d d d d d d d d ",
"d d d d d d d d d d d d d d d d d d d d d d d s s s n p s d d d d d d d d d d d d d d d d d d d ",
"d d d d d d d d d d d d d d d d d d s n n c + 6 6 6 , < + p d d d d d d d d d d d d d d d d d d ",
"d d d d d d d d d d d d d d d d a z + 1 , 1 $ $ $ $ = = % + M d d d d d d d d d d d d d d d d d ",
"d d d d d d d d d d d d d d d i + . $ , ^ $.$.$.$.%.%.[ q - r i d d d d d d d d d d d d d d d d ",
"d d d d d d d d d d d d d a u < > 8 _ i.A.W.E.Q.E.E.W.L.y.[ > < u d d d d d d d d d d d d d d d ",
"d d d d d f d d d d d d l 6 . 0 %.S.'.).W.U.T.U.U.R.U.T.E.L...R : u d d d d d d d d d d d d d d ",
"d d d d d f f B B B f p : 7 / e.'.[.[.~.Y.U.U.Y.Y.U.U.T.U.Y.L.v.` < j d d d d d d d d d d d d d ",
"d d d d d f B O.O.O.V r # 0 t.^.{.{.[.W.E.E.P.Q.G.T.T.U.E.Y.Y.!.i.7 < l d d d d d d d d d d d d ",
"d d d d d f B +.+.@.k - , #.b./.{.{.{._.!.W.W.Y.Y.R.Q.P.Q.E.E.!.).p., O M d d d d d d d d d d d ",
"d d d d d d f O.+.o.6 $ ) c.F.^.[.).{.].^._.(.E.!.`.~.E.W.^./.!.[.[.` q g s d d d d d d d d d d ",
"d d d d d d d d B m 2 - } b.G.^.[.).].).~.].(.W.).[.^.E.~.`.^.W.^.`.i.$.0 l d d d d d d d d d d ",
"d d d d d d d d d r # T w.b.F.!._./.^.~.Q.^.^.W._.].^.E.!.]./.Y.Y.~.W.e., 3 s d d d d d d d d d ",
"d d d d d d d d z : 7 ^ s.j.F.R.W.E.L.G.U.E.W.E.~.~.W.Y.W.(.E.U.U.I.R.y., - c d d d d d d d d d ",
"d d d d d d d d r 7 ! ) f.z.K.R.Y.G.M.R.T.Y.Y.Y.G.G.Y.Y.Y.Q.Y.Y.Y.Q.T.b.W # O N d d d d d d d d ",
"d d d d d d d v - 7 _  .g.j.K.R.Y.F.M.U.U.Y.Y.Y.Y.Y.G.R.Y.Y.G.B.P.I.U.F.$.# 4 n f B B f f d d d ",
"d d d d d d M t % 7 ' -.g.j.N.B.R.G.N.G.Y.Y.Y.Y.R.F.B.R.R.R.G.M.G.J.R.G.w., , n B C O.C B f d d ",
"d d d d d d n 2 # 7 ' -.g.h.l.M.U.J.G.R.Y.Y.Y.Y.R.B.N.J.R.R.G.M.F.T.R.R.L.' $ h X.+.+.+.O.B d d ",
"d d d d d d l - # w } ;.k.g.k.N.R.F.K.G.Y.Y.Y.Y.R.B.N.J.R.G.R.B.U.U.U.Y.F.-.8 g B O.+.+.+.C f d ",
"d d d d d M t & 7 )  .=.a.g.k.c.B.B.m.G.Y.Y.U.Y.R.N.N.J.R.R.G.B.U.U.B.F.B.s.R 1 v B B C C C f d ",
"d d d d d l - 7 ) ,.=.| =.<.,.s.l.l.n.F.R.Y.Y.R.G.b.l.B.J.J.F.m.H.J.N.M.b.s.E $ 2 b d d d d d d ",
"d a p p j X R } s.k.a.| | ;.:.k.k.g.z.n.N.B.F.J.K.l.g.j.D.H.n.h.z.H.b.d.2.>.} R - g N d d d d d ",
"d l X X , ~ V.L.N.g.3.:.| | =.<.k.k.g.g.k.k.b.N.n.g.g.g.k.k.g.g.g.g.k.a.=.=.;.w.W . j M d d d d ",
"d j 4 %.e.V.E.Y.F.n.k.3.<.,.=.=.>.3.g.l.k.f.f.k.k.g.g.<.r.=. .r.2.f.k.>.=.:.k.k.,./ : t l M M d ",
"d j 4 u.W.I.J.R.F.c.s.z.l.g.1.1.1.g.g.2.:.<.,.k.1.<.<.=...E 0 ] =.>.k.3.1.3.k.d.n.M.` R { y g N ",
"d b 4 e r.J.H.n.-.W r.D.k.g.h.g.k.k.g.>.*.<.<.3.<.:.=.| ' = = E &.t.k.g.h.k.*.*.c.G.L.L.u.q 3 M ",
"d d h $ ~ v.x.;.e ) Z.D.r.*.c.n.k.k.g.>.:.k.k.k.k.k.1.q.E $ & 7 ' x.k.z.N.m.#.e W -.Z.Z.[ . l d ",
"d d n t w x x e e t.L.y.) e M.P.H.D.l.3.k.l.z.z.z.b.M.q.0   % % , ) c.F.J.G.M.$.e E W R q 2 M d ",
"d d d M c t : w u.A.t.` o ~ C.E.R.K.j.g.z.m.F.G.G.L.y.W $ ; Z ; # > } Z.I.I.P.C.x...8 # 4 b d d ",
"d d d d d N l : Q ] 0 - - u.W.E.I.N.l.m.G.Y.E.L.-.} W $ ; G K G S * 7 ` w.E.P.V.$.T % 4 b d d d ",
"f d d d d d d j #   # & & ! ( ( q.r.s.M.C.A.e.~ ,   # ; H P P P K F ; % 0 ( ( R - # : b d d d d ",
"d d d d d d M 5 # & & & & # # # 8 e e x T T 8 # & * A H P U 6.5.P K H A & # % # % % - j d d d d ",
"d d d d d n t $ 9 T w = % ; D A & % % % * * * ; D F K P U 4.9.8.5.I K F * % # , Q R w : g s d d ",
"d d d d d g $ 9 ' ..&./ = ; H K G G G G G G J J L I U 5.7.9.0.0.8.4.Y H ; # , } x.t.#.R > c d d ",
"d d d d d h 9 _ ..>.d.t.R & F L Y 6.6.U Y 7.7.7.8.7.8.9.0.0.0.0.0.7.L S * $ ] x.k.k.=.^ , c d d ",
"d d d d d h 9 ] | <.g.d.^   ; L 5.7.6.5.6.7.7.7.7.7.7.7.7.7.7.7.4.L Z * & $ ) s.k.a.&.^ X i d d ",
"d d d d d j , /  .:.f.-.e $ * Z J J H P P P P I I I I I I I I P J Z % $ 5 5 , ] q.&.} R t n d d ",
"d d d d d n O , ^ ..[ T $ - * * * * ; Z D D D S S Z Z Z S S S S * & $ 5 n j X o w x q o l d d d ",
"d d d d d d n + 2 0 , - 3 j 3 & & % < 2 1 1 1 2 2 2 2 2 , % * & & < 6 n d s b r 2 @ @ h s d d d ",
"d d d d d f f V c g r z N d n 6 $ # 5 M N N N N M N N N M O $ % : l d d d d d d N N d V f d d d ",
"d d d d d f f f f V d d d d d n 2 # : c d d d d d d d d d r - r c d d d d d d d d d d f f f d d ",
"d d d d d f f d d d d d d d d d r # 5 M d d d d d d d d a . - c d d d d d d d d d d d d d d d d ",
"d d d d d d f d d d d d d d d n r @ l d d d d d d d d d s O 3 j d d d d d d d d d d d d d d d d ",
"d d d d d d d d d d d d d d d d d d d d d d d d d d d d d N N d d d d d d d d d d d d d d d d d ",
"d d d d d d d d d d d d d d d d d d d d d d d d d d d d d d d d d d d d d d d d d d d d d d d d ",
"d d d d d d d d d d d d d d d d d d d d d d d d d d d d d d d d d d d d d d d d d d d d d d d d ",
"d d d d d d d d d d d d d d d d d d d d d d d d d d d d d d d d d d d d d d d d d d d d d d d d ",
"d d d d d d d d d d d d d d d d d d d d d d d d d d d d d d d d d d d d d d d d d d d d d d d d "
};
