/* XPM */
static char *ee8f934767e5441dbd1f1db424792311uZ4GGY80SbXUKq03[] = {
/* columns rows colors chars-per-pixel */
"48 48 194 2 ",
"   c #16181F",
".  c #1E1F1C",
"X  c #1F201D",
"o  c #262919",
"O  c #25271E",
"+  c #2C3518",
"@  c #3B3C1E",
"#  c #161A25",
"$  c #1D1C23",
"%  c #161C28",
"&  c #181A2D",
"*  c #151C33",
"=  c #211C2C",
"-  c #1B2123",
";  c #1E2429",
":  c #192237",
">  c #242926",
",  c #272428",
"<  c #2C2B2A",
"1  c #222526",
"2  c #312B24",
"3  c #2B3428",
"4  c #373926",
"5  c #272530",
"6  c #332E32",
"7  c #352B3A",
"8  c #2F3631",
"9  c #2F3832",
"0  c #353431",
"q  c #353A35",
"w  c #3C3C39",
"e  c #493E34",
"r  c #403B37",
"t  c #394226",
"y  c #3C4434",
"u  c #4D4E1F",
"i  c #5D5E1C",
"p  c #65591C",
"a  c #63561D",
"s  c #5F611C",
"d  c #6D6C1B",
"f  c #6E711D",
"g  c #72751B",
"h  c #75781F",
"j  c #706D1E",
"k  c #494927",
"l  c #5B4929",
"z  c #4B5424",
"x  c #555A21",
"c  c #47483A",
"v  c #5A4836",
"b  c #4F523B",
"n  c #645624",
"m  c #604D3D",
"M  c #6C5D3D",
"N  c #5C6325",
"B  c #6B6D21",
"V  c #6C6729",
"C  c #6D7222",
"Z  c #767823",
"A  c #71663F",
"S  c #736A36",
"D  c #1F2E43",
"F  c #1F2641",
"G  c #222D49",
"H  c #252B44",
"J  c #2A3A56",
"K  c #283351",
"L  c #313F61",
"P  c #27405B",
"I  c #3F4E40",
"U  c #3B496B",
"Y  c #335067",
"T  c #3D4F74",
"R  c #395273",
"E  c #3C5879",
"W  c #494245",
"Q  c #4E4B46",
"!  c #594B46",
"~  c #4A5543",
"^  c #585646",
"/  c #565750",
"(  c #514E54",
")  c #615243",
"_  c #645C4D",
"`  c #6B5C4C",
"'  c #685746",
"]  c #675D54",
"[  c #615553",
"{  c #5A614D",
"}  c #666255",
"|  c #6B6355",
" . c #6D665B",
".. c #6A6A5A",
"X. c #726355",
"o. c #756A5A",
"O. c #796D5D",
"+. c #736758",
"@. c #7B705E",
"#. c #756846",
"$. c #6B5F68",
"%. c #6A6A61",
"&. c #766863",
"*. c #7D6F60",
"=. c #6E7261",
"-. c #747363",
";. c #7C7164",
":. c #7D7B6D",
">. c #7F7972",
",. c #837969",
"<. c #997E6A",
"1. c #927D66",
"2. c #827E72",
"3. c #917E73",
"4. c #7E8142",
"5. c #878648",
"6. c #8D8164",
"7. c #848275",
"8. c #8C8471",
"9. c #89867A",
"0. c #8A8977",
"q. c #9D8B78",
"w. c #998764",
"e. c #A5896C",
"r. c #A69679",
"t. c #AB9277",
"y. c #B49472",
"u. c #B79A74",
"i. c #B99E7B",
"p. c #C2A279",
"a. c #CBA97E",
"s. c #C6AE7F",
"d. c #D0AD7F",
"f. c #3F6C88",
"g. c #416181",
"h. c #496689",
"j. c #43748E",
"k. c #437A8F",
"l. c #467E99",
"z. c #43859A",
"x. c #A99B82",
"c. c #A6A28C",
"v. c #BEAC88",
"b. c #B6A78B",
"n. c #BDB594",
"m. c #A6A595",
"M. c #BBB6AA",
"N. c #8F8F88",
"B. c #C6A684",
"V. c #C6B48B",
"C. c #CEB589",
"Z. c #D4B582",
"A. c #D9BB87",
"S. c #D3B48A",
"D. c #D6BA88",
"F. c #DBBE8D",
"G. c #D6B882",
"H. c #C9B793",
"J. c #C7BDA5",
"K. c #D5C292",
"L. c #DFC594",
"P. c #DCC891",
"I. c #D8C79C",
"U. c #E2CC9A",
"Y. c #E5D49D",
"T. c #CEC7A4",
"R. c #DBD2AA",
"E. c #D8D0B3",
"W. c #D5CCAE",
"Q. c #E6CDA0",
"!. c #EBD9A4",
"~. c #EDDDAB",
"^. c #EBD1A2",
"/. c #F3DEAD",
"(. c #F1D6A2",
"). c #E3DAB2",
"_. c #EDDDB2",
"`. c #F1DFB4",
"'. c #EEE1A7",
"]. c #EEE2AD",
"[. c #F0E3A6",
"{. c #F1E1AC",
"}. c #EDE3B3",
"|. c #EEE4B9",
" X c #F0E1B3",
".X c #EFE8C1",
"XX c #F1E5C0",
"oX c #F5EDCB",
"OX c #F5ECC6",
"+X c #F3EDD9",
"@X c #FBF4D9",
"#X c #F0EDD0",
"$X c #FCFAE6",
"%X c #FDFBF5",
/* pixels */
"g g g g g g g g g g g g g g g g g g g g g g g g g g g g g g g g g g g g g g g g g g g g g g g g ",
"g g g g g g g g g g g g g g g g g g g g g g g f f f B s f g g g g g g g g g g g g g g g g g g g ",
"g g g g g g g g g g g g g g g g g g f B B N @ 4 4 4 < 1 @ s g g g g g g g g g g g g g g g g g g ",
"g g g g g g g g g g g g g g g g d x @ 2 < 2 $ $ $ $ = = % @ C g g g g g g g g g g g g g g g g g ",
"g g g g g g g g g g g g g g g i @ X $ < ] 8.8.8.8.0.0.>.q - t i g g g g g g g g g g g g g g g g ",
"g g g g g g g g g g g g g d u 1 , 6 $.M.E.|.}. X}.}.|.).n.>., 1 u g g g g g g g g g g g g g g g ",
"g g g g g h g g g g g g x 4 X 0 0.W.#X+X|.'.'.'.'.{.'.[.}.).3.Q > u g g g g g g g g g g g g g g ",
"g g g g g h h Z Z Z h s > 5 [ c.#X$X$XXX].'.'.'.].'.'.[.'.].).J.%.1 z g g g g g g g g g g g g g ",
"g g g g g h Z 5.5.5.Z t # 0 b.oX%X%X$X|.}.}._. X~.[.[.'.}.].]..XM.5 1 x g g g g g g g g g g g g ",
"g g g g g h Z 5.5.5.k - < 6.K.OX%X%X%X@X.X|.|.].].{. X_. X}.}..X+XN.< @ B g g g g g g g g g g g ",
"g g g g g g h 5.5.4.4 $ o.H.!.oX$X+X%X$XoX@XoX}..X@XXX}.|.oXOX.X$X$X%.q k f g g g g g g g g g g ",
"g g g g g g g g Z V 3 - ,.K.~.oX$X+X$X+XXX$XoX|.+X$XoX}.XX@XoX|.oX@XM.8.0 z g g g g g g g g g g ",
"g g g g g g g g V y # W c.K.!..X@XOXoXXX XoXoX|.@X$XoX}..X$XOX].].XX|.c.< 8 M V g g g g g g g g ",
"g g g g g g g S ^ > 5 ] V.A.!.{.|.}.).~.'.}.|.}.XXXX|.].|.oX}.'.'.`.{.n.< - } O.S g g g g g g g ",
"g g g g g g V O.c 5 ( X.C.F.(.{.].~.I.{.[.].].].~.~.].].]. X].'.]. X[.K.^ # 9 7.o.n g g g g g g ",
"g g g g g A ,...; 5 $.1.Z.A.(.{.'.!.I.'.'.'.'.].].].~.{.].'.~.Y._.`.'.!.8.# 8 ' ,.;.#.g h g g g ",
"g g g g A 2.:.y % 5 &.r.Z.A.U.Y.{.~.U.~.].].'.].{.!.Y.{.{.{.~.I.~./.{.~.x.< 6 | O.9.2.#.Z h g g ",
"g g g B O.2.| 3 # 5 &.r.Z.G.D.I.'./.~.{.].'.].].{.^.U./.{.{.~.I.!.[.{.{.).&.$ ^ +.O.7.O.S Z g g ",
"g d d n O.O.b ; # w ,.t.S.Z.S.U.{.!.(.~.].].'.].{.Y.U./.{.~.{.Y.'.'.'.'.!.r.6 c -.` ;.*.M S j g ",
"V @.O.+.o. .y & 5 X.1.e.B.Z.S.H.Y.Y.P.~.].'.'.'.{.U.U./.{.{.~.Y.'.'.Y.!.Y.V.Q 2 { o.o.O.o.O.O.#.",
"O.9.7.7.7.{ ; 5 X.i.e.<.e.p.i.V.D.D.L.!.{.'.'.{.~.K.D.Y././.!.P.^./.U.I.K.V.! $ 3 =.7.7.7.7.9.*.",
"O.:... .^ o Q ,.V.S.B.<.<.t.y.S.S.Z.F.L.U.Y.!./.(.D.Z.A.Q.^.L.G.F.^.K.C.s.u.,.Q - ~ 7.2.7.7.9.*.",
";.{ o o < _ T.).U.Z.d.y.<.<.e.p.S.S.Z.Z.S.S.K.U.L.Z.Z.Z.S.S.Z.Z.Z.Z.S.B.e.e.t.x.^ X ~ -.:.2.9.*.",
";./ 3 0.c.T.}.].!.L.D.Z.p.i.e.e.u.d.Z.D.S.C.C.S.S.Z.Z.p.v.e.1.v.s.C.S.u.e.y.S.S.i.[ > y ^ -.7.*.",
";./ 3 m.|.`./.{.!.H.V.F.D.Z.a.a.a.Z.Z.s.y.p.i.S.a.p.p.e.3.! 0 ;.e.u.S.d.a.d.S.C.L.I.%.Q { I ~ @.",
"*.-.9 e v./.^.L.r.^ v.Q.S.Z.G.Z.S.S.Z.u.w.p.p.d.p.y.e.<.&.= = ! q.b.S.Z.G.S.w.w.H.~.).).m.q q O.",
"*.N.^ $ _ J.H.t.e o.R.Q.v.w.H.L.S.S.Z.u.y.S.S.S.S.S.a.x.! $ & 5 &.H.S.F.U.P.6.e ^ r.R.R.>.X ..;.",
"X.9.-.y w c c e e b.).n.X.e I._.^.Q.D.d.S.D.F.F.F.K.I.x.0   % % < o.H.!./.~.I.8.e ! ^ Q q 8 :.X.",
"m  .} } ^ t > w m.E.b.%.O _ R.}.{.(.A.Z.F.P.!.~.~.).n.^ $ : D : # , ,.R.`.`._.R.H.3.6 # 3 ^ } m ",
"m ' ' :.;.o.b > / ;.0 - - m.|.}.`.U.D.P.~.].}.).r.,.^ $ : J U J G * 5 %.x.}._.T.8.W % 8 ..` ' m ",
"p l v 7.2.:.-.c #   # & & ( } } x.v.V.I.R.E.c._ <   # : L T T T U K : % 0 } } Q - # 5 =.9.v l p ",
"g g n | 7.2.-.q # & & & & # # # 6 e e c W W 6 # & * F L T E h.g.T U L F & # % # % % ; ^ | n g g ",
"g g d l :.-.y $ 7 W w = % : H F & % % % * * * : H K U T E f.l.k.g.R U K * % # < / Q w > 4 d g g ",
"g g g p ` c $ 7 &.3.q.[ = : L U J J J J J J P P Y R E g.j.l.z.z.k.f.E L : # < ,.H.b.6.Q , N g g ",
"g g g g l c 7 $.3.u.C.b.Q & K Y E h.h.E E j.j.j.k.j.k.l.z.z.z.z.z.j.Y G * $ ;.H.S.S.e.] < N g g ",
"g g g g d k 7 ;.<.p.Z.C.]   : Y g.j.h.g.h.j.j.j.j.j.j.j.j.j.j.j.f.Y D * & $ o.V.S.B.q.] o i g g ",
"g g g g g k < [ 1.y.C.r.e $ * D P P L T T T T R R R R R R R R T P D % $ q w < ;.x.q.,.Q t B g g ",
"g g g g g B @ < ] 3.>.W $ ; * * * * : D H H H G G D D D G G G G * & $ q -.^ o O w c q O x g g g ",
"g g g g g g B @ 3 0 < ; q / q & & % 1 0 0 0 0 8 8 8 8 8 6 % * & & , r ..` v k 4 3 + + k f g g g ",
"g g g g g h h Z N k 4 k _  . .w $ # q :.9.7.7.7.7.7.7.7.:.3 $ % 5 ^ ' v l a d g C C g Z h g g g ",
"g g g g g h h h h Z g d a l ) ^ < # > ^ o. . . . .} }  . .4 ; q b v l a d g g g g g g h h h g g ",
"g g g g g h h g g g g g g d p n 4 # 0 } } } ] ] ] ] ] ] _ . ; k a p d g g g g g g g g g g g g g ",
"g g g g g g h g g g g g g g g B t + k ' m m ) ) ) ) ) ) ^ + 3 z g g g g g g g g g g g g g g g g ",
"g g g g g g g g g g g g g g g g g g d p p p p p p p p p p B C g g g g g g g g g g g g g g g g g ",
"g g g g g g g g g g g g g g g g g g g g g g g g g g g g g g g g g g g g g g g g g g g g g g g g ",
"g g g g g g g g g g g g g g g g g g g g g g g g g g g g g g g g g g g g g g g g g g g g g g g g ",
"g g g g g g g g g g g g g g g g g g g g g g g g g g g g g g g g g g g g g g g g g g g g g g g g ",
"g g g g g g g g g g g g g g g g g g g g g g g g g g g g g g g g g g g g g g g g g g g g g g g g "
};
