/* XPM */
static char *_6bfec18f9f046918290ae552482e06cAs4smY2U7b3wGhT4[] = {
/* columns rows colors chars-per-pixel */
"48 48 30 1 ",
"  c #72751B",
". c #675D50",
"X c #635649",
"o c #858277",
"O c #7D786D",
"+ c #7B7467",
"@ c #6C6155",
"# c #6E665B",
"$ c #605143",
"% c #655A4D",
"& c #5D4C3D",
"* c #8A877B",
"= c #71741B",
"- c #776F64",
"; c #685E1F",
": c #71695E",
"> c #6F6E1B",
", c #817B6E",
"< c #6E6727",
"1 c #8D8B7F",
"2 c #645634",
"3 c #736744",
"4 c #5E4F2A",
"5 c #787A27",
"6 c #756C4A",
"7 c #63551B",
"8 c #726553",
"9 c #71692D",
"0 c #878548",
"q c #776C58",
/* pixels */
"                                                ",
"           =><<<<<<<<<<<<<<<<<<<<<<<>=          ",
"          =>9333333333333333333333339>=         ",
"         =>96+O,OO+++++++++++++++++-69>=        ",
"        =>96Oo***oooooooooooo**oooo,+69>=       ",
"       =>96+o***oooooooooooooo*oooooo+69>       ",
"       >93+ooooo,+++++++++OOOOOO,ooooo-3<=      ",
"     55=96+*oo,+:...@@@@@@@@@@@@:OooooO3<=      ",
"      556q+oooO:%XX%%......%%XXX.:OoooO3<=      ",
"      55+-+oo,-.X.@#########@..%X.-oooO3<=      ",
"      556q+oo,:%%:-------------#.%#oooO3<=      ",
"      ==96O**,:%.-------++++----#.#oo*O3<=      ",
"       >96O**,:.@++-+++OOO+++---#.#oo*O3<=      ",
"       >96O**,:@#OO+++OOOOOO++++:@#oo*O3<=      ",
"       >96O**,:@:OOOOOOOOOOOO+++:.#oo*O3<=      ",
"       >96O**,-#:OOOOOOOOOOOO+++:.#oo*O3<55     ",
"       >96O**,-@:OOOOOOOOOOOO+++:.:oo*,3900555  ",
"       >96O**,-##OO+++OOOOOOOOO+#@-**1,6600005  ",
"       >96,1*oO8@--:##::-++++++-#:O**1,6900000 =",
"       >96,11*o+:@@%XX%.@@8#####:Oo**1,6955055  ",
"       >96,11**o+:8888888888888-Oo***1,3<= 55   ",
"       ><3O111**o,,,,O,,,,,,,,,oo*1**o-.;==     ",
"       ><3-*11111111111*11111111111**O#2;=      ",
"       >;2#o*1*11111****111111******o-.2;=      ",
"       >;2#Ooooooo,,,,,,,,oooo,,,,,O+:%2;=      ",
"       =;2#O+++++++------+++++-------:%2;=      ",
"       >;2@+:::::::######:::::#:::#:::@2;=      ",
"       =;2@-####@@.............@##::#:@2;=      ",
"       >;2@:###@%$$X$X$X$X$X$X$X.#::#:@2;=      ",
"       =;2.###@%$&&&&&&&&&&&&&&&$.###:.2;=      ",
"       >;2.##@%$&$X%%%%%%%%%%%%XXX.###.2;=      ",
"       >;2%##.$&&X%.%%.........%X$$@##.2;=      ",
"=      >;2%##.$&&%%%%%.%.%.%%...X&$@@#.2;=      ",
"=      >;2X#@.$&&%X%%%..%%%%%%%.X$$@@#.2;=      ",
"       >;2X#@.$&&XX%%%.%XXXXXXX%X&$@@#.2;=      ",
"       >;2X#@.$&&$XX%..%%XXXXXXX$&$@@@%2;=      ",
"       >;2X@@%$&&$$XX%.%%XXXXXXX$&$@@#%2;=      ",
"       >;2X@@%$&&X$XXX%.%XXXXXX%$&$@@@%2;=      ",
"       >;2X@@%$&&$$$XXXXXX$$$$$$&&$@@@%2;=      ",
"       >;2X@..%$&&&&$$$$$$&&&&&&&$X..@%2;=      ",
"       >;2X@...%$$&&&&&&&&&&&&&&$X...@%2;= 5    ",
"     55>;2X#@...%X$$$$XXXXXXXX$X%..%..X2;=      ",
"       >;2X@@@@...%%.@@@@@@##@.%..%.%.X2;==     ",
"       =>;2X@#@......@@@@@@@#@@......X2;>=      ",
"      ===>;2%.%XXXX%%XXXXX%%.%XXX%%%X2;>=       ",
"      == =>;2$$&&&&$$&&&&&&$$&&&&$$$2;>=        ",
"          =>;44444444444444444444444;>=         ",
"          ==>;777777777777777777777;>=          "
};
